X:7
T:FIFE HUNT -- REEL.
R:reel
C:SCOTCH.
B:Coles
Z:John Walsh <walsh:mat:h.ubc.ca>
M:2/4
L:1/16
K:C
(ugf)|("4"ec)(cA) (GE)(EC)|Dddc Bcdf|("4"ec)(cA) (GE)(ED)|CcBd c2(ugf)|\
("4"ec)(cA) (GE)(EC)|Dddc Bcdf|("4"ec)(cA) (GE)(ED)|CcBd c2:|
|:(ucd)|"4"ecgc acgc|"4"eddc d"0"efg|ecgc acgc|Gccd c2(ucd)|\
"4"ecgc acgc|"4"eddc defg|ecgc acge|dgab "4"c'2:|
